!!!COM: Beethoven
!!!OTL: 13 Variationen uber "Es war einmal ein alter Mann" aus "Das rote Kappchen" von K. Ditters von Dittersdorf
!!!Variation: Variation 10 c
**function	**harm	**kern	**kern
*	*	*clefF4	*clefG2
*	*	*k[f#c#g#]	*k[f#c#g#]
*M2/4	*M2/4	*M2/4	*M2/4
*A:	*A:	*A:	*A:
=385	=385	=385	=385
4.D	4.IV/V	4A	(8.cc#L
.	.	.	48dd#LL
.	.	.	48cc#
.	.	.	48b#
.	.	8r	8cc#'L)
8D	8V7d/V	8A' 8B'	8dd#'J
=386	=386	=386	=386
2D	2Ib/V	4G# 4B	8ee'L
.	.	.	8ff#'J
.	.	16r	8gg#'
*	*	*clefG2	*
.	.	(16eLL	.
.	.	16f#	8r
.	.	16g#JJ	.
=387	=387	=387	=387
4.D	4.IV/V	4a')	(8.cc#L
.	.	.	48dd#LL
.	.	.	48cc#
.	.	.	48b#
.	.	8r	8cc#'L)
8D	8V7d/V	8a'	8dd#'J
=388	=388	=388	=388
4D	4Ib/V	4g#'	8ee'L
.	.	.	8gg#'J
4D	4I/V	16r	8bb'
*	*	*clefF4	*
.	.	(16ELL	.
.	.	16F#	8r
.	.	16G#JJ	.
=389	=389	=389	=389
4.D	4.IV/V	4A')	(8.cc#L
.	.	.	48dd#LL
.	.	.	48cc#
.	.	.	48b#
.	.	8r	8cc#'L)
8D	8V7d/V	8A' 8B'	8dd#'J
=390	=390	=390	=390
2D	2Ib/V	4G#' 4B'	8ee'L
.	.	.	8ff#'J
.	.	16r	8gg#'
*	*	*clefG2	*
.	.	(16eLL	.
.	.	16f#	8r
.	.	16g#JJ	.
=391	=391	=391	=391
4.D	4.IV/V	4a')	(8.cc#L
.	.	.	48dd#LL
.	.	.	48cc#
.	.	.	48b#
.	.	8r	8cc#'L)
8D	8V7d/V	8a'	8dd#'J
=392	=392	=392	=392
4D	4Ib/V	8g#'	(8.eeL
.	.	8r	.
.	.	.	48ff#LL
.	.	.	48ee
.	.	.	48dd#
4D	4I/V	8r	8ee'L)
.	.	8e'	8gg#'J
=393	=393	=393	=393
4D	4Vb/V	8d#'	(8.bbL
.	.	8r	.
.	.	.	48ccc#LL
.	.	.	48bb
.	.	.	48aa#
4D	4V/V	8B'	8bb'L)
.	.	8r	8ddd#'J
=394	=394	=394	=394
2D	2r	2r;	2r;
=395	=395	=395	=395
*	*	*clefF4	*
4.D	4.I/V	8r	4.eee
.	.	(8e	.
.	.	8c#L	.
*-	*-	*-	*-
